paymentMethods/iDeal.svg

<svg width="128" height="64" viewBox="0 0 128 64" fill="none" xmlns="http://www.w3.org/2000/svg">
<rect width="128" height="64" rx="6" fill="white"/>
<path d="M50.3429 14.4757V52.3553H66.8316C81.8029 52.3553 88.2934 43.903 88.2934 31.943C88.2934 20.4982 81.8029 11.6157 66.8316 11.6157H53.1981C52.8221 11.6132 52.4493 11.6855 52.1014 11.8284C51.7535 11.9713 51.4376 12.1819 51.1719 12.448C50.9062 12.7142 50.696 13.0305 50.5537 13.3786C50.4114 13.7267 50.3397 14.0996 50.3429 14.4757Z" fill="#CC0066"/>
<path d="M64.9407 58H38.2978C37.1619 58 36.0725 57.5488 35.2693 56.7456C34.4661 55.9424 34.0149 54.853 34.0149 53.7171V10.2829C34.0149 9.14701 34.4661 8.05764 35.2693 7.25444C36.0725 6.45123 37.1619 6 38.2978 6H64.9407C90.2174 6 93.9851 22.2618 93.9851 31.9433C93.9756 48.744 83.6465 58 64.9407 58ZM38.2978 7.41818C37.5456 7.41818 36.8241 7.71701 36.2922 8.24893C35.7603 8.78085 35.4614 9.5023 35.4614 10.2545V53.6887C35.4614 54.441 35.7603 55.1624 36.2922 55.6943C36.8241 56.2263 37.5456 56.5251 38.2978 56.5251H64.9407C82.7436 56.5251 92.5574 47.7796 92.5574 31.896C92.548 10.6185 75.2367 7.41818 64.9407 7.41818H38.2978Z" fill="black"/>
<path d="M56.1435 26.8377C56.6966 26.8333 57.2465 26.9229 57.7697 27.1025C58.2649 27.2777 58.7153 27.5602 59.0886 27.9297C59.4588 28.334 59.7535 28.8016 59.9584 29.3101C60.1749 29.9428 60.2804 30.6081 60.2704 31.2767C60.2716 31.8948 60.189 32.5102 60.0246 33.1061C59.8665 33.6319 59.6098 34.1228 59.2682 34.5527C58.9165 34.9548 58.483 35.2772 57.9966 35.4981C57.4238 35.7399 56.8077 35.8621 56.186 35.8574H52.286V26.7999H56.1435V26.8377ZM56.0111 34.2217C56.2987 34.2213 56.5843 34.175 56.8573 34.0847C57.1318 33.9909 57.3776 33.8281 57.5711 33.6119C57.7942 33.3654 57.9676 33.0781 58.0817 32.7657C58.2294 32.3586 58.2984 31.927 58.2849 31.4941C58.2882 31.0807 58.2438 30.6683 58.1526 30.265C58.0733 29.921 57.9201 29.5983 57.7035 29.3196C57.4915 29.0538 57.2148 28.847 56.8998 28.7192C56.509 28.572 56.093 28.5029 55.6755 28.5159H54.2573V34.2407H56.0206L56.0111 34.2217Z" fill="white"/>
<path d="M68.3208 26.8377V28.5065H63.551V30.4494H67.9426V31.9999H63.551V34.2076H68.4343V35.881H61.5656V26.7999H68.3208V26.8377Z" fill="white"/>
<path d="M75.1516 26.838L78.5411 35.8907H76.4658L75.7756 33.8911H72.3814L71.6676 35.8955H69.668L73.0811 26.8427L75.1516 26.838ZM75.2603 32.3926L74.1211 29.0835L72.9392 32.3926H75.2603Z" fill="white"/>
<path d="M81.7745 26.838V34.222H86.2134V35.8907H79.7891V26.838H81.7745Z" fill="white"/>
<path d="M42.8926 35.5356C45.1953 35.5356 47.0621 33.6689 47.0621 31.3662C47.0621 29.0634 45.1953 27.1967 42.8926 27.1967C40.5899 27.1967 38.7231 29.0634 38.7231 31.3662C38.7231 33.6689 40.5899 35.5356 42.8926 35.5356Z" fill="black"/>
<path d="M46.0315 52.3557C45.204 52.357 44.3843 52.1952 43.6193 51.8797C42.8543 51.5641 42.1589 51.101 41.5729 50.5168C40.9869 49.9325 40.5217 49.2385 40.2039 48.4745C39.886 47.7104 39.7218 46.8912 39.7206 46.0637V41.1143C39.7206 40.2759 40.053 39.4717 40.6449 38.878C41.2368 38.2843 42.04 37.9495 42.8784 37.947C43.7168 37.947 44.521 38.2794 45.1147 38.8713C45.7084 39.4633 46.0432 40.2664 46.0457 41.1048V52.3557H46.0315Z" fill="black"/>
</svg>

<svg xmlns="http://www.w3.org/2000/svg" width="128" height="64" fill="none"><rect width="128" height="64" fill="#fff" rx="6"/><path fill="#C06" d="M50.343 14.476v37.88h16.489c14.97 0 21.461-8.453 21.461-20.413 0-11.445-6.49-20.327-21.461-20.327H53.198a2.837 2.837 0 0 0-2.855 2.86Z"/><path fill="#000" d="M64.94 58H38.299a4.283 4.283 0 0 1-4.283-4.283V10.283A4.283 4.283 0 0 1 38.298 6H64.94c25.276 0 29.044 16.262 29.044 25.943C93.975 48.744 83.647 58 64.941 58ZM38.299 7.418a2.836 2.836 0 0 0-2.837 2.837v43.434a2.836 2.836 0 0 0 2.837 2.836H64.94c17.803 0 27.616-8.745 27.616-24.629-.009-21.278-17.32-24.478-27.616-24.478H38.298Z"/><path fill="#fff" d="M56.144 26.838a4.89 4.89 0 0 1 1.626.264c.495.176.945.458 1.319.828.37.404.665.872.87 1.38.216.633.321 1.298.311 1.967a6.829 6.829 0 0 1-.245 1.83 4.329 4.329 0 0 1-.757 1.446 3.75 3.75 0 0 1-1.271.945 4.567 4.567 0 0 1-1.811.36h-3.9V26.8h3.858v.038Zm-.133 7.384c.288 0 .573-.047.846-.137.275-.094.52-.257.714-.473a2.58 2.58 0 0 0 .51-.846c.148-.407.217-.839.204-1.272a5.378 5.378 0 0 0-.132-1.229 2.43 2.43 0 0 0-.45-.945 1.98 1.98 0 0 0-.803-.6 3.192 3.192 0 0 0-1.224-.204h-1.419v5.725h1.764l-.01-.02ZM68.32 26.838v1.668h-4.769v1.943h4.392V32H63.55v2.209h4.883v1.673h-6.868V26.8h6.755v.038ZM75.152 26.838l3.39 9.053h-2.076l-.69-2H72.38l-.713 2.005h-2l3.413-9.053 2.07-.005Zm.108 5.555-1.139-3.31-1.182 3.31h2.321ZM81.775 26.838v7.384h4.438v1.669H79.79v-9.053h1.986Z"/><path fill="#000" d="M42.893 35.536a4.17 4.17 0 1 0 0-8.34 4.17 4.17 0 0 0 0 8.34ZM46.032 52.356a6.301 6.301 0 0 1-6.311-6.292v-4.95a3.167 3.167 0 0 1 3.157-3.167 3.167 3.167 0 0 1 3.168 3.158v11.25h-.014Z"/></svg>
